src/assets/icons/icons/svgmap/playlist-ds.svg

<?xml version="1.0" encoding="UTF-8"?>
<svg id="playlist" xmlns="http://www.w3.org/2000/svg" viewBox="0 0 320 320">
  <defs>
    <style>
      .cls-1, .cls-2 {
        fill: #fff;
      }

      .cls-2 {
        fill-rule: evenodd;
      }
    </style>
  </defs>
  <path id="note" class="cls-2" d="m305.68,57.85c-.88-3.54-4.45-5.7-7.99-4.82l-60.99,15.09c-3.93.97-6.69,4.5-6.69,8.54v15.56l-2.07,109.44c-8.39-4.22-18.65-5.65-29.01-3.31-21.69,4.9-35.6,24.43-31.07,43.63,4.53,19.2,25.79,30.79,47.48,25.89,19.59-4.42,32.82-20.78,31.87-38.04l2.13-112.27,49.85-12.34c3.93-.97,6.69-4.5,6.69-8.54v-37.25c0-.53-.06-1.07-.19-1.59Z"/>
  <path id="linien" class="cls-1" d="m134.5,239H25.5c-5.8,0-10.5,4.7-10.5,10.5s4.7,10.5,10.5,10.5h109c5.8,0,10.5-4.7,10.5-10.5s-4.7-10.5-10.5-10.5Zm0-60H25.5c-5.8,0-10.5,4.7-10.5,10.5s4.7,10.5,10.5,10.5h109c5.8,0,10.5-4.7,10.5-10.5s-4.7-10.5-10.5-10.5Zm64-60H25.5c-5.8,0-10.5,4.7-10.5,10.5s4.7,10.5,10.5,10.5h173c5.8,0,10.5-4.7,10.5-10.5s-4.7-10.5-10.5-10.5Zm0-60H25.5c-5.8,0-10.5,4.7-10.5,10.5s4.7,10.5,10.5,10.5h173c5.8,0,10.5-4.7,10.5-10.5s-4.7-10.5-10.5-10.5Z"/>
</svg>

<svg xmlns="http://www.w3.org/2000/svg" viewBox="0 0 320 320">
  <path fill="#fff" fill-rule="evenodd" d="M305.68 57.85c-.88-3.54-4.45-5.7-7.99-4.82L236.7 68.12c-3.93.97-6.69 4.5-6.69 8.54v15.56l-2.07 109.44c-8.39-4.22-18.65-5.65-29.01-3.31-21.69 4.9-35.6 24.43-31.07 43.63 4.53 19.2 25.79 30.79 47.48 25.89 19.59-4.42 32.82-20.78 31.87-38.04l2.13-112.27 49.85-12.34c3.93-.97 6.69-4.5 6.69-8.54V59.43c0-.53-.06-1.07-.19-1.59Z"/>
  <path fill="#fff" d="M134.5 239h-109c-5.8 0-10.5 4.7-10.5 10.5S19.7 260 25.5 260h109c5.8 0 10.5-4.7 10.5-10.5s-4.7-10.5-10.5-10.5Zm0-60h-109c-5.8 0-10.5 4.7-10.5 10.5S19.7 200 25.5 200h109c5.8 0 10.5-4.7 10.5-10.5s-4.7-10.5-10.5-10.5Zm64-60h-173c-5.8 0-10.5 4.7-10.5 10.5S19.7 140 25.5 140h173c5.8 0 10.5-4.7 10.5-10.5s-4.7-10.5-10.5-10.5Zm0-60h-173C19.7 59 15 63.7 15 69.5S19.7 80 25.5 80h173c5.8 0 10.5-4.7 10.5-10.5S204.3 59 198.5 59Z"/>
</svg>
